X:1
T: Bratach Bana
C:
R:Reel
Q: 232
K:A
M:4/4
L:1/8
A2|E2A2 A2e2|c3B cBA2|E2A2 A2e2|c3B cBA2|d4 e2f2|e3d c2d2|e2e2 B2cB|A2E2 F2E2|
E2A2 A2e2|c3B cBA2|E2A2 A2e2|c3B cBA2|d4 e2f2|e3d c2d2|e2e2 B2cB|A2E2 F2E2|
c3B c2E2|F2E2 A3F|E2E2 F2E2|c2B2 B2E2|c3B c2E2|F2E2 A2E2|ce3 B2cB|A2E2 F2E2|
c3B c2E2 F2E2|A3F E2E2|F2E2 c2B2|B2c2 E3F|A2E2 F2E2|A2E2 ce3|B2c2 A4-A2||
